X:1
T:My Pet
T:My Pet
T:Zez Confrey
T:Copyright 1921 by Jack Mills Inc
T:Copyright 1921 by Jack Mills Inc
T:Copyright 1921 by Jack Mills Inc
T:Copyright 1921 by Jack Mills Inc
T:Copyright 1921 by Jack Mills Inc
T:Copyright 1921 by Jack Mills Inc
T:Copyright 1921 by Jack Mills Inc
C:Zez Confrey
Z:Copyright 1921 by Jack Mills Inc
%%score { ( 1 3 ) | ( 2 4 ) }
L:1/8
Q:1/4=180
M:2/2
K:D
V:1 treble nm="Piano" snm="Pno."
V:3 treble 
V:2 treble 
V:4 treble 
V:1
!p!"^Allegro moderato" (3z [gbe'] z .[gbe']>.[egb] z z/ .[egb]/ z2 | %1
 (3z [GBe] z .[GBe]>.[EGB] z z/ [EGB]/ z2 | %2
 z[I:staff +1] .G,[I:staff -1].[B,EG]!<(! z[I:staff +1] .B,[I:staff -1].[EGB] z .E | %3
 .[GBe]!<)! z .B,.[EGB] .[^A,F^A]2 z2 |:!mf! z2 (3B=c^c .[df]>.B .=c>.^c | %5
 .[eg]>B c>!>![gb]- [gb]4 | z2 (3B=c^c .[df]>.B.=c>.^c | .[eg]>.B.c>!>![gb]- [gb]4 | %8
 (3z [gbe'] z .[gbe']>.[egb] z z/ .[egb]/ z2 | (3z [GBe] z .[GBe]>.[EGB] z z/ [EGB]/ z2 | %10
 z[I:staff +1] .G,[I:staff -1].[B,EG]!<(! z[I:staff +1] .B,[I:staff -1].[EGB] z .E | %11
 .[GBe]!<)! z .B,.[EGB] .[^A,F^A]2 z2 | z2 (3B=c^c .[df]>.B.=c>.^c | .[eg]>.B.c>!>![gb]- [gb]4 | %14
 z2 (3B=c^c .[df]>.B.=c>.^c | .[eg]>.B.c>!>![gb]- [gb]4 | %16
 (3z [gbe'] z .[gbe']>.[egb] z z/ .[egb]/ z2 | (3z [GBe] z .[GBe]>.[EGB] z z/ [EGB]/ z2 | %18
 z2 .[^ad'].f .d.^A.^F.E | !>!^A,2 !>![E,F,A,C]2 !>![D,F,B,]2 z2 :|[K:F] f2 f2 !>!g2 f2 | %21
 !>!g2 fg- g2 f2 | [df]2 [df]2 !>![dg]2 [df]2 | !>![dg]2 [df]!>![dg]- [dg]2 [df]2 | f2 e2 f2 g2 | %25
 f g2 e- e2 z (3_A/=B/^c/ | !>!d z z2 !>![df]4- | [df]>.[^ce] !>![=Bd]2 !>![A^c]2 z2 | %28
 f2 f2 !>!g2 f2 | !>!g2 fg- g2 f2 | [df]2 [df]2 !>![dg]2 [df]2 | %31
 !>![dg]2 [df]!>![dg]- [dg]2 [df]2 | g3 _b- b4 | c3 _e- e2 z2 | f2 g2 f e2 d- | d4- d2 z2 || %36
[K:D] (3z [gbe'] z .[gbe']>.[egb] z z/ .[egb]/ z2 | (3z [GBe] z .[GBe]>.[EGB] z z/ [EGB]/ z2 | %38
 z[I:staff +1] .G,[I:staff -1].[B,EG]!<(! z[I:staff +1] .B,[I:staff -1].[EGB] z .E | %39
 .[GBe]!<)! z .B,.[EGB] .[^A,F^A]2 z2 | z2 (3B=c^c .[df]>.B .=c>.^c | .[eg]>B c>!>![gb]- [gb]4 | %42
 z2 (3B=c^c .[df]>.B.=c>.^c | .[eg]>.B.c>!>![gb]- [gb]4 | %44
 (3z [gbe'] z .[gbe']>.[egb] z z/ .[egb]/ z2 | (3z [GBe] z .[GBe]>.[EGB] z z/ [EGB]/ z2 | %46
 z[I:staff +1] .G,[I:staff -1].[B,EG]!<(! z[I:staff +1] .B,[I:staff -1].[EGB] z .E | %47
 .[GBe]!<)! z .B,.[EGB] .[^A,F^A]2 z2 | z2 (3B=c^c .[df]>.B.=c>.^c | .[eg]>.B.c>!>![gb]- [gb]4 | %50
 z2 (3B=c^c .[df]>.B.=c>.^c | .[eg]>.B.c>!>![gb]- [gb]4 | %52
 (3z [gbe'] z .[gbe']>.[egb] z z/ .[egb]/ z2 | (3z [GBe] z .[GBe]>.[EGB] z z/ [EGB]/ z2 | %54
 z2 .[^ad'].f .d.^A.^F.E | !>!^A,2 !>![E,F,A,C]2 !>![D,F,B,]2 z2 ||[K:F] f2 f2 !>!g2 f2 | %57
 !>!g2 fg- g2 f2 | [df]2 [df]2 !>![dg]2 [df]2 | !>![dg]2 [df]!>![dg]- [dg]2 [df]2 | f2 e2 f2 g2 | %61
 f g2 e- e2 z (3_A/=B/^c/ | !>!d z z2 !>![df]4- | [df]>.[^ce] !>![=Bd]2 !>![A^c]2 z2 | %64
 f2 f2 !>!g2 f2 | !>!g2 fg- g2 f2 | [df]2 [df]2 !>![dg]2 [df]2 | %67
 !>![dg]2 [df]!>![dg]- [dg]2 [df]2 | g3 _b- b4 | c3 _e- e2 z2 | f2 g2 f e2 d- | d4- d2 z2 || %72
[K:G][M:2/2]!mf!"^Trio" z2 (3D^DE [B=d]>(D .[DAd]) z | z2 (3D^DE [Ad]>(D .[DGd]) z | %74
 z .D.[Fd].D .E.[Gd].D.E | !>![Fd]8 |!p! .b2 z2 .b2 z2 | .b2 z2 .b2 z2 | b2 z2 _e4 | [DGB]8 | %80
 .b2 z2 .b2 z2 | .b2 z2 .b2 z2 | f4 f4 | [B^df]2 z2 [CF=d]4 | .b2 z2 .b2 z2 | .b2 z2 .b2 z2 | %86
 b2 z2 _e4 | [DGB]4- [DGB]2 z2 |!f! .[CGc]2 .[CGc]2 !>![^CG^c]4 | %89
{/^c} .[DGBd]2 .[DGBd]2 !>![EGBe]4 |{/B} .[DBd]2 [^CGB]4{/G} [=CDA]2 | .[B,DG]2 z2 !>![GBdg]2 z2 || %92
[K:D]!mf! z ([df]cB [GB]F E2) | z ([df]cB [GB]F E2) | %94
!f! .[B,=FA] !>![B,FA]2 .[B,FA] !>![B,F=G]2 !>![B,FG]2 | [^A,E^F]2 z2 z2 z!>(! (3B/=c/^c/!>)! | %96
!mf!"_Grandioso" d z (3.[=fa].d.c .B.[fa].d.B | .[=fa].d.B.[^f^a]- .f.e .^c2 | %98
 z2 (3.[=fa].d.c .B.[fa].d.B | .[=fa].d.B.[^f^a]- .f.e .^c2 | z ([df]cB [GB]F E2) | %101
 z ([df]cB [GB]F E2) | (3z .E.[GBe] z .D .[EGB] z .E.[GBe] | z .D.[EGB] z .[B,EG]2 z (3B/=c/^c/ | %104
 .d z (3[=fa]dc B[fa]dB | [=fa]dB!>![^f^a]- fe ^c2 | z2 (3.[=fa].d.c .B.[fa].d.B | %107
 .[=fa].d.B.[^f^a]- f.e .^c2 | z ([df]cB [GB]F E2) | z ([df]cB [GB]F E2) | .[B,EG]2 (3BGE .C2 z2 | %111
!f! z2 [^Ae^a]2 !>![Bdfb]2 z2 |] %112
V:2
 (3.[f^ac']z.[fac'] z2 .[cfa]3/2 z/ .[cfa]2 | (3.[F^Ac]z.[FAc] z2 .[CFA]3/2 z/ .[CF=A]2 | %2
[K:bass] !>![F,,F,] z z !>![C,C] z z !>![F,F] z | z !>![C,C] z2 .[F,,F,]2 !>![F,,,F,,]2 |: %4
 [B,,,B,,]2 [B,DF]2 [D,,D,]2 [B,DF]2 | [C,,C,]2 [B,CEG]4 !>![F,,,F,,]2 | %6
 !>![B,,,B,,]2 [B,DF]2 [D,,D,]2 [B,DF]2 | [C,,C,]2 [B,CEG]4 !>![F,F]2 | %8
[K:treble] (3.[f^ac']z.[fac'] z2 .[cfa]3/2 z/ .[cfa]2 | (3.[F^Ac]z.[FAc] z2 .[CFA]3/2 z/ .[CF=A]2 | %10
[K:bass] !>![F,,F,] z z !>![C,C] z z !>![F,F] z | z !>![C,C] z2 .[F,,F,]2 !>![F,,,F,,]2 | %12
 !>![B,,,B,,]2 [B,DF]2 [D,,D,]2 [B,DF]2 | [C,,C,]2 [B,CEG]4 !>![F,F]2 | %14
 !>![B,,,B,,]2 [B,DF]2 [D,,D,]2 [B,DF]2 | [C,,C,]2 [B,CEG]4 !>![F,F]2 | %16
[K:treble] (3.[f^ac']z.[fac'] z2 .[cfa]3/2 z/ .[cfa]2 | (3.[F^Ac]z.[FAc] z2 .[CFA]3/2 z/ .[CF=A]2 | %18
[K:bass] !>![F,E] z z2 z4 | z2 [F,,F,]2 [B,,,B,,]2 z2 :| %20
[K:F] !arpeggio!.[A,,A,]2 !arpeggio!.[A,,=B,]2 !arpeggio!.[A,,^C]2 !arpeggio!.[A,,B,]2 | %21
 !arpeggio!.[A,,^C]2 !arpeggio!.[A,,=B,]2 !arpeggio!.[A,,C]2 !arpeggio!.[A,,A,]2 | %22
 C,,2 [A,DF]2 A,,2 [A,DF]2 | [D,,D,]2 [A,DF]2 A,,2 [A,DF]2 | %24
 !arpeggio!.[A,,A,]2 !arpeggio!.[A,,=B,]2 !arpeggio!.[A,,^C]2 !arpeggio!.[A,,B,]2 | %25
 !arpeggio!.[A,,A,]2 !arpeggio!.[A,,=B,]2 !arpeggio!.[A,,^C]2 !arpeggio!.[A,,A,]2 | %26
 !>![D,D] z z2 !>![D,,D,]>!>![^D,,^D,] !>![E,,E,]2- | %27
 [E,,E,]>[F,,F,] !>![^G,,^G,]2 !>![A,,A,]2 z2 | %28
 !arpeggio!.[A,,A,]2 !arpeggio!.[A,,=B,]2 !arpeggio!.[A,,^C]2 !arpeggio!.[A,,B,]2 | %29
 !arpeggio!.[A,,^C]2 !arpeggio!.[A,,=B,]2 !arpeggio!.[A,,C]2 !arpeggio!.[A,,A,]2 | %30
 C,,2 [A,DF]2 A,,2 [A,DF]2 | [D,,D,]2 [A,DF]2 A,,2 [A,DF]2 | %32
 [F,,F,]2 [_A,_B,D]2 [B,,B,]2 [A,B,D]2 | [_E,,B,,]2 [G,B,_E]2 [G,,G,]2 [_A,,_A,]2 | %34
 [=A,,=A,]2 [_B,,_B,]2 [=B,,=B,]2 [^C,^C]2 | [D,D]2 .[A,,A,]2 .[D,,D,]2 z2 || %36
[K:D][K:treble] (3.[f^ac']z.[fac'] z2 .[cfa]3/2 z/ .[cfa]2 | %37
 (3.[F^Ac]z.[FAc] z2 .[CFA]3/2 z/ .[CF=A]2 |[K:bass] !>![F,,F,] z z !>![C,C] z z !>![F,F] z | %39
 z !>![C,C] z2 .[F,,F,]2 !>![F,,,F,,]2 | [B,,,B,,]2 [B,DF]2 [D,,D,]2 [B,DF]2 | %41
 [C,,C,]2 [B,CEG]4 !>![F,,,F,,]2 | !>![B,,,B,,]2 [B,DF]2 [D,,D,]2 [B,DF]2 | %43
 [C,,C,]2 [B,CEG]4 !>![F,F]2 |[K:treble] (3.[f^ac']z.[fac'] z2 .[cfa]3/2 z/ .[cfa]2 | %45
 (3.[F^Ac]z.[FAc] z2 .[CFA]3/2 z/ .[CF=A]2 |[K:bass] !>![F,,F,] z z !>![C,C] z z !>![F,F] z | %47
 z !>![C,C] z2 .[F,,F,]2 !>![F,,,F,,]2 | !>![B,,,B,,]2 [B,DF]2 [D,,D,]2 [B,DF]2 | %49
 [C,,C,]2 [B,CEG]4 !>![F,F]2 | !>![B,,,B,,]2 [B,DF]2 [D,,D,]2 [B,DF]2 | %51
 [C,,C,]2 [B,CEG]4 !>![F,F]2 |[K:treble] (3.[f^ac']z.[fac'] z2 .[cfa]3/2 z/ .[cfa]2 | %53
 (3.[F^Ac]z.[FAc] z2 .[CFA]3/2 z/ .[CF=A]2 |[K:bass] !>![F,E] z z2 z4 | %55
 z2 [F,,F,]2 [B,,,B,,]2 z2 || %56
[K:F] !arpeggio!.[A,,A,]2 !arpeggio!.[A,,=B,]2 !arpeggio!.[A,,^C]2 !arpeggio!.[A,,B,]2 | %57
 !arpeggio!.[A,,^C]2 !arpeggio!.[A,,=B,]2 !arpeggio!.[A,,C]2 !arpeggio!.[A,,A,]2 | %58
 C,,2 [A,DF]2 A,,2 [A,DF]2 | [D,,D,]2 [A,DF]2 A,,2 [A,DF]2 | %60
 !arpeggio!.[A,,A,]2 !arpeggio!.[A,,=B,]2 !arpeggio!.[A,,^C]2 !arpeggio!.[A,,B,]2 | %61
 !arpeggio!.[A,,A,]2 !arpeggio!.[A,,=B,]2 !arpeggio!.[A,,^C]2 !arpeggio!.[A,,A,]2 | %62
 !>![D,D] z z2 !>![D,,D,]>!>![^D,,^D,] !>![E,,E,]2- | %63
 [E,,E,]>[F,,F,] !>![^G,,^G,]2 !>![A,,A,]2 z2 | %64
 !arpeggio!.[A,,A,]2 !arpeggio!.[A,,=B,]2 !arpeggio!.[A,,^C]2 !arpeggio!.[A,,B,]2 | %65
 !arpeggio!.[A,,^C]2 !arpeggio!.[A,,=B,]2 !arpeggio!.[A,,C]2 !arpeggio!.[A,,A,]2 | %66
 C,,2 [A,DF]2 A,,2 [A,DF]2 | [D,,D,]2 [A,DF]2 A,,2 [A,DF]2 | %68
 [F,,F,]2 [_A,_B,D]2 [B,,B,]2 [A,B,D]2 | [_E,,B,,]2 [G,B,_E]2 [G,,G,]2 [_A,,_A,]2 | %70
 [=A,,=A,]2 [_B,,_B,]2 [=B,,=B,]2 [^C,^C]2 | [D,D]2 .[A,,A,]2 .[D,,D,]2 z2 ||[K:G][M:2/2] D,8 | %73
 D,8 | .D,.A,.C .D,.G,.C.D,.F, | .C2 .[D,,D,]2 .[E,,E,]2 .[F,,F,]2 | %76
 [G,,G,]2 [B,DG]2 [^C,,^C,]2 [^CEG]2 | [G,,G,]2 [B,DG]2 [^C,,^C,]2 [^CEG]2 | %78
 [G,,G,]2 [B,DG]2 [C,,=C,]2 [G,C_E]2 | [G,,G,]2 .[D,,D,]2 .[E,,E,]2 .[F,,F,]2 | %80
 [G,,G,]2 [B,DG]2 [^C,,^C,]2 [^CEG]2 | [G,,G,]2 [B,DG]2 [^C,,^C,]2 [^CEG]2 | %82
 A,,2 [F,B,^D]2 F,,2 [F,E]2 | [B,,B,]2 z2 [D,,D,]4 | [G,,G,]2 [B,DG]2 [^C,,^C,]2 [^CEG]2 | %85
 [G,,G,]2 [B,DG]2 [^C,,^C,]2 [^CEG]2 | [G,,G,]2 [B,DG]2 [C,,=C,]2 [G,C_E]2 | %87
 [G,,G,]2 .D,2 .[G,,G,]2 z2 | .[E,,E,]2 .[E,,E,]2 !>![_E,,_E,]4 | %89
 .[D,,D,]2 .[D,,D,]2 !>![^C,,^C,]4 | .[D,,D,]2 !>![E,,E,]4 .[F,,F,]2 | %91
 .[G,,G,]2 z2 !>![G,,,G,,]2 z2 ||[K:D] [B,,B,]3 [D,D]- [D,D]2 [C,C]2 | %93
 [B,,B,]3 [D,D]- [D,D]2 [C,C]2 | .[^C,,^C,] !>![C,,C,]2 .[C,,C,] !>![C,,C,]2 !>![C,,C,]2 | %95
 !>![^F,,,^F,,]2 .[G,,,G,,]2 .[B,,,B,,]2 .[C,,C,]2 | [D,,D,]2 [G,B,=F]2 G,,2 [G,B,F]2 | %97
 [D,,D,]2 [G,B,=F]2 [^C,,^C,]2 [F,^A,E]2 | [D,,D,]2 [G,B,=F]2 G,,2 [G,B,F]2 | %99
 [D,,D,]2 [G,B,=F]2 [^C,,^C,]2 [F,^A,E]2 | [B,,B,]3 [D,D]- [D,D]2 [C,C]2 | %101
 [B,,B,]3 [D,D]- [D,D]2 [C,C]2 | (3.[F,F] z z .[F,C] z z .[F,F] z2 | .[F,C] z z .[F,C] z4 | %104
 [D,,D,]2 [G,B,=F]2 G,,2 [G,B,F]2 | [D,,D,]2 [G,B,=F]2 [^C,,^C,]2 [F,^A,E]2 | %106
 [D,,D,]2 [G,B,=F]2 G,,2 [G,B,F]2 | [D,,D,]2 [G,B,=F]2 [^C,,^C,]2 [F,^A,E]2 | %108
 [B,,B,]3 [D,D]- [D,D]2 [C,C]2 | [B,,B,]3 [D,D]- [D,D]2 [C,C]2 | .[C,,C,]2 (3C,E,G, .B,2 z2 | %111
 z2 !>![F,,F,]2 !>![B,,,B,,]2 z2 |] %112
V:3
 x8 | x8 | x8 | x8 |: x8 | x8 | x8 | x8 | x8 | x8 | x8 | x8 | x8 | x8 | x8 | x8 | x8 | x8 | x8 | %19
 x8 :|[K:F] A>^GA>B =B>_BA>B | =B_BA=B- B_B A2 | A>^GA>B =B>_BA>B | =B_BA=B- B_B A2 | %24
 A>_AG>A =A>=B=B>_B | A _A2 G- G2 x2 | x8 | x8 | A>^GA>B =B>_BA>B | =B_BA=B- B_B A2 | %30
 A>^GA>B =B>_BA>B | =B_BA=B- B_B A2 | =Bc^cd- d4 | =EF^FG- G2 x2 | AB=B_B A G2 F- | F4- F2 x2 || %36
[K:D] x8 | x8 | x8 | x8 | x8 | x8 | x8 | x8 | x8 | x8 | x8 | x8 | x8 | x8 | x8 | x8 | x8 | x8 | %54
 x8 | x8 ||[K:F] A>^GA>B =B>_BA>B | =B_BA=B- B_B A2 | A>^GA>B =B>_BA>B | =B_BA=B- B_B A2 | %60
 A>_AG>A =A>=B=B>_B | A _A2 G- G2 x2 | x8 | x8 | A>^GA>B =B>_BA>B | =B_BA=B- B_B A2 | %66
 A>^GA>B =B>_BA>B | =B_BA=B- B_B A2 | =Bc^cd- d4 | =EF^FG- G2 x2 | AB=B_B A G2 F- | F4- F2 x2 || %72
[K:G][M:2/2] x8 | x8 | x8 | x8 | (3ded B2 (3efe B2 | (3ded B2 (3efe B2 | (3ded B2 (3ABA G2 | x8 | %80
 (3ded B2 (3efe B2 | (3ded B2 (3efe B2 | (3B^dB F2 (3^A^cA F2 | x8 | (3ded B2 (3efe B2 | %85
 (3ded B2 (3efe B2 | (3ded B2 (3ABA G2 | x8 | x8 | x8 | x8 | x8 ||[K:D] x8 | x8 | x8 | x8 | x8 | %97
 x4 a4 | x8 | x4 a4 | x8 | x8 | x8 | x8 | x8 | x4 a4 | x8 | x4 a4 | x8 | x8 | x8 | x8 |] %112
V:4
 x8 | x8 |[K:bass] x8 | x8 |: x8 | x8 | x8 | x8 |[K:treble] x8 | x8 |[K:bass] x8 | x8 | x8 | x8 | %14
 x8 | x8 |[K:treble] x8 | x8 |[K:bass] x8 | x8 :|[K:F] x8 | x8 | x8 | x8 | x8 | x8 | x8 | x8 | x8 | %29
 x8 | x8 | x8 | x8 | x8 | x8 | x8 ||[K:D][K:treble] x8 | x8 |[K:bass] x8 | x8 | x8 | x8 | x8 | x8 | %44
[K:treble] x8 | x8 |[K:bass] x8 | x8 | x8 | x8 | x8 | x8 |[K:treble] x8 | x8 |[K:bass] x8 | x8 || %56
[K:F] x8 | x8 | x8 | x8 | x8 | x8 | x8 | x8 | x8 | x8 | x8 | x8 | x8 | x8 | x8 | x8 || %72
[K:G][M:2/2] C2- C>^C D z =C z | B,4 .C z .B, z | x8 | x8 | x8 | x8 | x8 | x8 | x8 | x8 | x8 | x8 | %84
 x8 | x8 | x8 | x8 | x8 | x8 | x8 | x8 ||[K:D] x8 | x8 | x8 | x8 | x8 | x8 | x8 | x8 | x8 | x8 | %102
 x8 | x8 | x8 | x8 | x8 | x8 | x8 | x8 | x8 | x8 |] %112

